dist/assets/img/shipping-partners/dpdhl.svg

<svg width="196" height="74" viewBox="0 0 196 74" fill="none" xmlns="http://www.w3.org/2000/svg">
<path d="M194.813 41.207H18.4629V29.765V18.322H194.813V41.207Z" fill="#FECC00"/>
<path d="M194.271 1.7286V72.1634H1.7286V1.7286H194.271ZM196 0H0V73.892H196V0Z" fill="#007C39"/>
<path d="M27.4789 41.7264C25.0678 41.8627 22.6985 41.0543 20.8735 39.4727C20.0584 38.68 19.4218 37.7226 19.0062 36.6643C18.5906 35.606 18.4056 34.4712 18.4635 33.3357C18.4635 32.8041 18.4982 32.1915 18.5676 31.4978C18.637 30.8041 18.741 30.0991 18.8796 29.3827C19.5729 25.6151 20.9196 22.7431 22.9196 20.7666C23.9272 19.781 25.1243 19.01 26.4385 18.5004C27.7526 17.9907 29.1565 17.753 30.5652 17.8016C32.0247 17.7396 33.4784 18.0211 34.8093 18.6234C36.1401 19.2256 37.3111 20.1319 38.2279 21.2692L34.9685 24.2164C34.4497 23.5654 33.7922 23.0383 33.044 22.6735C32.2838 22.3457 31.4617 22.186 30.634 22.2054C29.8139 22.1661 28.9952 22.309 28.2368 22.6236C27.4785 22.9383 26.7992 23.417 26.2478 24.0254C24.9752 25.7083 24.1788 27.7025 23.9421 29.799C23.8261 30.4001 23.7394 30.9953 23.6821 31.5845C23.6248 32.1737 23.5959 32.6765 23.5955 33.093C23.5182 34.2379 23.8986 35.3666 24.6531 36.2311C25.0506 36.6102 25.5223 36.9029 26.0384 37.0909C26.5546 37.2788 27.1041 37.3579 27.6523 37.3231C28.9562 37.3712 30.2266 36.9042 31.1889 36.0231C32.1822 35.0158 32.8055 33.7021 32.9575 32.2956L32.992 32.0875H28.4151L29.1431 27.9269H38.7131L38.1582 31.1513C36.9331 38.2021 33.3733 41.7271 27.4789 41.7264ZM50.5023 41.7264C48.0602 41.8636 45.6568 41.0709 43.7755 39.5078C42.9498 38.7427 42.3015 37.8061 41.8762 36.7638C41.4509 35.7215 41.2589 34.5987 41.3137 33.4743C41.3373 32.1012 41.4765 30.7325 41.7297 29.3827C42.3768 25.638 43.6886 22.7718 45.6652 20.7839C46.6621 19.7923 47.852 19.0159 49.1611 18.5029C50.4703 17.9899 51.8709 17.7512 53.2761 17.8016C55.7182 17.6649 58.1214 18.4578 60.0028 20.0208C60.8284 20.7861 61.4765 21.7227 61.9018 22.765C62.3271 23.8072 62.5191 24.9299 62.4646 26.0543C62.4411 27.4274 62.3019 28.7961 62.0486 30.1458C61.4013 33.8906 60.0895 36.7569 58.1132 38.7447C57.1162 39.7362 55.9263 40.5124 54.6171 41.0253C53.308 41.5382 51.9074 41.7768 50.5023 41.7264ZM50.6409 37.3231C51.4262 37.3545 52.2081 37.2051 52.9266 36.8865C53.645 36.5679 54.2806 36.0885 54.7844 35.4853C56.0029 33.7891 56.7615 31.8064 56.9863 29.73C57.1016 29.1294 57.1883 28.511 57.2463 27.8749C57.3043 27.2388 57.3332 26.713 57.3331 26.2975C57.3728 25.7408 57.2961 25.182 57.108 24.6566C56.9199 24.1312 56.6245 23.6507 56.2405 23.2457C55.3823 22.5058 54.2679 22.1324 53.1372 22.2057C52.3519 22.1744 51.5699 22.3238 50.8515 22.6424C50.1331 22.9611 49.4974 23.4405 48.9936 24.0436C47.7746 25.7397 47.0161 27.7228 46.792 29.7994C46.6742 30.4128 46.5874 31.0318 46.532 31.654C46.4741 32.2901 46.4453 32.816 46.4454 33.2319C46.4056 33.7885 46.4822 34.3472 46.6702 34.8725C46.8582 35.3979 47.1536 35.8783 47.5375 36.2832C48.3956 37.0231 49.5102 37.3965 50.6409 37.3231Z" fill="#4B4B4B"/>
<path d="M74.1136 41.7264C71.7025 41.8627 69.3332 41.0543 67.5082 39.4727C66.6932 38.68 66.0566 37.7226 65.641 36.6643C65.2254 35.606 65.0404 34.4712 65.0982 33.3357C65.0982 32.8041 65.1329 32.1915 65.2023 31.4978C65.2717 30.8041 65.3757 30.0991 65.5143 29.3827C66.2077 25.6151 67.5543 22.7431 69.5543 20.7666C70.5619 19.781 71.759 19.0101 73.0731 18.5004C74.3872 17.9908 75.791 17.7531 77.1996 17.8016C78.6591 17.7397 80.1128 18.0211 81.4437 18.6234C82.7746 19.2257 83.9455 20.1319 84.8623 21.2692L81.6031 24.2164C81.0844 23.5654 80.4269 23.0384 79.6787 22.6735C78.9185 22.3457 78.0964 22.186 77.2687 22.2054C76.4486 22.1661 75.6299 22.309 74.8715 22.6236C74.1132 22.9383 73.4339 23.417 72.8824 24.0254C71.6099 25.7083 70.8135 27.7025 70.5767 29.799C70.4607 30.4001 70.3741 30.9953 70.3167 31.5845C70.2594 32.1737 70.2306 32.6765 70.2302 33.0929C70.1529 34.2378 70.5333 35.3665 71.2877 36.231C71.6853 36.6101 72.157 36.9028 72.6731 37.0908C73.1893 37.2787 73.7387 37.3578 74.2869 37.323C75.5908 37.3711 76.8612 36.9041 77.8235 36.023C78.8169 35.0157 79.4402 33.702 79.5921 32.2955L79.6266 32.0874H75.0496L75.7777 27.9268H85.3477L84.7928 31.1512C83.5676 38.2021 80.0079 41.7271 74.1136 41.7264ZM87.2549 41.2064L91.2771 18.322H99.2871C101.429 18.198 103.551 18.7895 105.32 20.0035C106.015 20.5091 106.576 21.1754 106.956 21.9454C107.337 22.7154 107.525 23.566 107.505 24.4246C107.505 24.7018 107.487 25.0311 107.453 25.4125C107.418 25.7939 107.366 26.1811 107.297 26.5742C107.098 27.9636 106.543 29.2778 105.684 30.3885C104.805 31.4118 103.64 32.1485 102.338 32.5036L105.771 41.2065H100.189L97.3104 33.093H93.739L92.3174 41.2065L87.2549 41.2064ZM98.6626 22.4481H95.6114L94.467 28.9669H97.5878C98.751 29.0432 99.9131 28.8036 100.951 28.2734C101.338 28.0108 101.662 27.6668 101.902 27.2655C102.142 26.8641 102.29 26.4152 102.338 25.9502C102.379 25.8032 102.402 25.6519 102.407 25.4994V25.2912C102.407 23.396 101.159 22.4483 98.6626 22.4481ZM109.446 41.2065L113.468 18.322H128.551L127.789 22.6908H117.837L116.971 27.5108H125.916L125.188 31.7408H116.242L115.341 36.8381H125.639L124.876 41.2068L109.446 41.2065ZM129.279 41.2065L133.301 18.322H148.384L147.622 22.6908H137.67L136.804 27.5108H145.75L145.022 31.7408H136.076L135.174 36.8381H145.472L144.71 41.2068L129.279 41.2065ZM148.939 41.2065L152.961 18.322H159.48L164.091 34.5146H164.646L167.49 18.322H172.31L168.288 41.2065H161.769L157.157 25.014H156.602L153.759 41.2065H148.939Z" fill="#007C39"/>
</svg>

<svg width="196" height="74" fill="none" xmlns="http://www.w3.org/2000/svg"><path d="M194.813 41.207H18.463V18.322h176.35v22.885z" fill="#FECC00"/><path d="M194.271 1.729v70.434H1.729V1.73H194.27zM196 0H0v73.892h196V0z" fill="#007C39"/><path d="M27.479 41.726a9.286 9.286 0 01-6.605-2.253 7.993 7.993 0 01-2.41-6.137c0-.532.034-1.145.104-1.838a23.08 23.08 0 01.312-2.115c.693-3.768 2.04-6.64 4.04-8.616a10.42 10.42 0 017.645-2.965 9.333 9.333 0 017.663 3.467l-3.26 2.947a5.598 5.598 0 00-1.924-1.543 5.746 5.746 0 00-2.41-.468 5.562 5.562 0 00-4.386 1.82 11.76 11.76 0 00-2.306 5.774 19.26 19.26 0 00-.346 3.294 4.329 4.329 0 001.057 3.138 3.982 3.982 0 003 1.092 4.966 4.966 0 003.536-1.3 6.268 6.268 0 001.769-3.727l.034-.209h-4.577l.728-4.16h9.57l-.555 3.224c-1.225 7.051-4.785 10.576-10.68 10.575zm23.023 0a9.677 9.677 0 01-6.727-2.218 7.714 7.714 0 01-2.461-6.034c.023-1.373.163-2.741.416-4.091.647-3.745 1.959-6.611 3.935-8.6a10.271 10.271 0 017.611-2.981 9.68 9.68 0 016.727 2.219 7.717 7.717 0 012.462 6.033 24.45 24.45 0 01-.416 4.092c-.648 3.745-1.96 6.61-3.936 8.599a10.271 10.271 0 01-7.61 2.981zm.139-4.403a5.133 5.133 0 004.143-1.838 12.096 12.096 0 002.202-5.755c.116-.6.202-1.219.26-1.855.058-.636.087-1.162.087-1.578a4.02 4.02 0 00-1.093-3.051 4.324 4.324 0 00-3.103-1.04 5.134 5.134 0 00-4.143 1.838 12.084 12.084 0 00-2.202 5.755 18.563 18.563 0 00-.26 1.855 17.962 17.962 0 00-.087 1.578 4.018 4.018 0 001.093 3.051 4.324 4.324 0 003.103 1.04z" fill="#4B4B4B"/><path d="M74.114 41.726a9.286 9.286 0 01-6.606-2.253 7.994 7.994 0 01-2.41-6.137c0-.532.035-1.145.104-1.838.07-.694.174-1.399.312-2.115.694-3.768 2.04-6.64 4.04-8.616a10.422 10.422 0 017.646-2.965 9.334 9.334 0 017.662 3.467l-3.259 2.947a5.598 5.598 0 00-1.924-1.543 5.746 5.746 0 00-2.41-.468 5.562 5.562 0 00-4.387 1.82 11.761 11.761 0 00-2.305 5.774 19.294 19.294 0 00-.347 3.294 4.33 4.33 0 001.058 3.138 3.983 3.983 0 002.999 1.092 4.966 4.966 0 003.536-1.3 6.267 6.267 0 001.77-3.728l.034-.208H75.05l.728-4.16h9.57l-.555 3.224c-1.225 7.051-4.785 10.576-10.68 10.575zm13.14-.52l4.023-22.884h8.01a9.673 9.673 0 016.033 1.681 5.31 5.31 0 012.185 4.421c0 .278-.018.607-.052.989-.035.38-.087.768-.156 1.161a8.114 8.114 0 01-1.613 3.814 6.753 6.753 0 01-3.346 2.116l3.433 8.703h-5.582l-2.879-8.114h-3.57l-1.422 8.113h-5.062zm11.409-18.758H95.61l-1.144 6.519h3.12a6.463 6.463 0 003.364-.694 3.205 3.205 0 001.387-2.323 1.91 1.91 0 00.069-.45v-.209c0-1.895-1.248-2.843-3.744-2.843zm10.783 18.758l4.022-22.884h15.083l-.762 4.369h-9.952l-.866 4.82h8.945l-.728 4.23h-8.946l-.901 5.097h10.298l-.763 4.369h-15.43zm19.833 0l4.022-22.884h15.083l-.762 4.369h-9.952l-.866 4.82h8.946l-.728 4.23h-8.946l-.902 5.097h10.298l-.762 4.369h-15.431zm19.66 0l4.022-22.884h6.519l4.611 16.193h.555l2.844-16.193h4.82l-4.022 22.884h-6.519l-4.612-16.192h-.555l-2.843 16.192h-4.82z" fill="#007C39"/></svg>
